X:1
T:Bowen, LM
T:Bowen, LM
T:Arranged from Franz Josef Haydn (1732-1809)
T:Public Domain Courtesy of the Cyber Hymnal™
C:Arranged from Franz Josef Haydn (1732-1809)
Z:Public Domain
Z:Courtesy of the Cyber Hymnal™
%%score ( 1 2 ) ( 3 4 )
L:1/8
Q:1/4=113
M:3/4
K:Ab
V:1 treble 
V:2 treble 
V:3 bass 
V:4 bass 
V:1
 [EA]2 [EG]2 [EA]2 | [FB]4 [EA]2 | (GB d2) [Ec]2 | (c2 B4) x2 | [Ec]2 [EB]2 [Ec]2 | [=DA]4 [EG]2 | %6
 (GF [B,E]2) [B,=D]2 | [B,E]8 | E2 [=DF]2 [_DG]2 | ([CA]2 [EB]2) [Ec]2 | (e2 d2) [Ec]2 | %11
 (c2 B4) x2 | [EA]2 [EB]2 [Ec]2 | (d3 e) [Af]2 | A4 (cB) | [CA]6 |] %16
V:2
 x6 | x6 | E4 x2 | E8 | x6 | x6 | C2 x4 | x8 | E2 x4 | x6 | E4 x2 | E8 | x6 | A4 x2 | (A2 E2) D2 | %15
 x6 |] %16
V:3
 [A,,C]2 [B,,D]2 [C,E]2 | [D,D]4 [C,E]2 | ([B,,D]2 [G,,B,]2) [A,,A,]2 | (A,2 G,4) x2 | %4
 A,2 [G,B,]2 A,2 | (A,2 B,2) [D,B,]2 | ([A,,A,]2 [B,,G,]2) [B,,F,]2 | [E,G,]8 | %8
 [E,G,]2 [E,A,]2 [E,B,]2 | (A,2 G,2) [E,A,]2 | (C2 B,2) [E,A,]2 | (A,2 G,4) x2 | %12
 [A,C]2 [G,B,]2 [G,A,]2 | [F,A,]4 [D,D]2 | [E,C]4 [E,G,]2 | [A,,A,]6 |] %16
V:4
 x6 | x6 | x6 | E,8 | A,2 x4 | F,4 x2 | x6 | x8 | x6 | E,4 x2 | E,4 x2 | E,8 | x6 | x6 | x6 | x6 |] %16

